modules/coreui-icons-free/icons/pregnant.svg

<!-- Generated by IcoMoon.io -->
<svg version="1.1" xmlns="http://www.w3.org/2000/svg" width="24" height="24" viewBox="0 0 24 24">
<title>pregnant</title>
<path d="M10.5 6.75c1.657 0 3-1.343 3-3s-1.343-3-3-3c-1.657 0-3 1.343-3 3v0c0.002 1.656 1.344 2.998 3 3h0zM10.5 2.25c0.828 0 1.5 0.672 1.5 1.5s-0.672 1.5-1.5 1.5c-0.828 0-1.5-0.672-1.5-1.5v0c0.001-0.828 0.672-1.499 1.5-1.5h0z"></path>
<path d="M16.592 11.783c-0.704-0.792-1.644-1.296-2.935-1.571l-1.162-2.712h-4.145l-1.225 8.572v2.678h2.625v4.5h4.5v-4.5h3.75v-2.25c0-2.108-0.461-3.651-1.408-4.717zM16.5 17.25h-3.75v4.5h-1.5v-4.5h-2.625v-1.072l1.025-7.178h1.855l1.092 2.547 0.404 0.067c1.148 0.191 1.933 0.561 2.469 1.165 0.693 0.779 1.029 1.996 1.029 3.72z"></path>
</svg>

<svg xmlns="http://www.w3.org/2000/svg" width="24" height="24" viewBox="0 0 24 24"><path d="M10.5 6.75a3 3 0 10-3-3 3.004 3.004 0 003 3zm0-4.5A1.5 1.5 0 119 3.75a1.502 1.502 0 011.5-1.5zM16.592 11.783c-.704-.792-1.644-1.296-2.935-1.571L12.495 7.5H8.35l-1.225 8.572v2.678H9.75v4.5h4.5v-4.5H18V16.5c0-2.108-.461-3.651-1.408-4.717zM16.5 17.25h-3.75v4.5h-1.5v-4.5H8.625v-1.072L9.65 9h1.855l1.092 2.547.404.067c1.148.191 1.933.561 2.469 1.165.693.779 1.029 1.996 1.029 3.72z"/></svg>
